resources/svg/unlock-small.svg

<svg xmlns="http://www.w3.org/2000/svg" viewBox="0 0 15 15" fill="currentColor"><path d="M6 5.62132C6 4.72589 6.72589 4 7.62132 4C8.05132 4 8.46371 4.17082 8.76777 4.47487L9.14645 4.85355L9.85355 4.14645L9.47487 3.76777C8.98328 3.27617 8.31654 3 7.62132 3C6.17361 3 5 4.1736 5 5.62132V6.08535C4.4174 6.29127 4 6.84689 4 7.5V10.5C4 11.3284 4.67157 12 5.5 12H9.5C10.3284 12 11 11.3284 11 10.5V7.5C11 6.67157 10.3284 6 9.5 6H6V5.62132Z" fill="black"/></svg>

<svg xmlns="http://www.w3.org/2000/svg" viewBox="0 0 15 15" fill="currentColor"><path d="M6 5.621a1.621 1.621 0 012.768-1.146l.378.379.708-.708-.38-.378A2.621 2.621 0 005 5.62v.464A1.5 1.5 0 004 7.5v3A1.5 1.5 0 005.5 12h4a1.5 1.5 0 001.5-1.5v-3A1.5 1.5 0 009.5 6H6v-.379z" fill="currentColor"/></svg>
